!!! OTL: Berkowitz121
!!! Chapter: 1
!!! Section: I
!!! Page: 29
!!! Mode: 
!!! Encoder: DJB
**kern
*staff1
*I"Piano
*clefF4
*k[f#c#]
*D:
*M3/4
4AA/
4BB/
=1
4.D\
8E\
4F#\
=2
4E\
4D\
4E\
=3
4F#\
4D\
4BB/
=4
2AA/
4F#\
=5
4.A\
8G\
4F#\
=6
4E\
4D\
4E\
=7
2F#\
4E\
=8
4r
4r
8AA/L
8BB/J
=9
4.D\
8E\
4F#\
=10
4E\
4D\
4E\
=11
!!linebreak:original
4F#\
4D\
4BB/
=12
2AA/
4F#\
=13
4.A\
8G\
4F#\
=14
4E\
4D\
4BB/
=15
[2.D\
=16
4D\]
2r
==
*-
